X:1
T:Arise and hail the sacred day
T:Joseph Stephenson
T:Text: This version of the text printed in full in The Musical Companion
T:This edition by Edmund Gooch released into the public domain, December 2010. As such, it may be freely copied and performed.
T:Arise and hail the sacred day
T:A Carol A 3 Voc:
C:Joseph Stephenson
Z:Text: This version of the text printed
Z:in full in The Musical Companion
%%score [ 1 2 3 ]
L:1/8
M:6/4
K:G
V:1 treble nm="Treble" snm="Tr."
V:2 treble nm="ALTO" snm="A."
V:3 bass nm="BASS" snm="B."
V:1
"^Vivace" D2 | G4 A2 (B2 A2) G2 | (A2 B2) c2 d4 z2 | z6 z4 A2 | (B2 c2) d2 G4 G2 | c4 B2 A4 z2 | %6
w: Then|let us with _ the|an- * gels join|And|praise _ his glo- rious|name di- vine,|
w: A-|rise and hail _ the|sa- * cred day,|Cast|all _ low cares of|life a- way,|
w: If|an- gels, on _ the|sa- * cred morn|The|Son _ of Righ- teous-|ness was born,|
 z6 z4 d2 | (e2 f2) g2 d4 B2 | (c3 B) A2 G4 A2 | (B2 c2) d2 e4 ^c2 | d6- d4 |: d2 | %12
w: and|praise _ his glo- rious|name _ di- vine With|hal- * le- lu- jahs|high; _|With|
w: cast|all _ low cares of|life _ a- way, And|thoughts _ of mean- er|things: _|This|
w: the|Son _ of Righ- teous-|ness _ was born, Pour’d|forth _ their se- raphs’|songs, _|How|
 d4 c2 (B3 c) d2 | G4 A2 B4 B2 | B4 A2 G4 A2 | B4 G2 A4 A2 | B4 A2 G4 A2 | B4 ^c2 d4 d2 | %18
w: end- less thanks _ to|God a- bove, with|end- less thanks to|God a- bove In|shew- ing forth his|bound- less love To|
w: day to cure _ thy|dead- ly woes, this|day to cure thy|dead- ly woes The|Son of Righ- teous-|ness a- rose, With|
w: should all peo- * ple|then on earth, how|should all peo- ple|then on earth Tri-|umph in ho- nour|of his birth: The|
 (e2 f2) g2 d4 (dc) | (B2 c2 B2 A2 B2 A2 | B6) z4 (Bc) | (d2 e2 d2 c2 d2 c2 | B3 A) G2 B4 A2 | %23
w: all _ e- ter- ni- *|ty, _ _ _ _ _|_ to _|all _ _ _ _ _|_ _ e- ter- ni-|
w: heal- * ing in his _|wings, _ _ _ _ _|_ with _|heal- * * * * *|* * ing in his|
w: praise _ to him be- *|longs, _ _ _ _ _|_ the _|praise _ _ _ _ _|_ _ to him be-|
 G6- G4 :| %24
w: ty. _|
w: wings. _|
w: longs! _|
V:2
 D2 | D4 D2 (D2 C2) B,2 | E4 E2 F4 z2 | z12 | z6 z4 D2 | (E2 F2) G2 D4 D2 | G4 F2 E4 F2 | %7
w: Then|let us with _ the|an- gels join||And|praise _ his glo- rious|name di- vine, and|
w: A-|rise and hail _ the|sa- cred day,||Cast|all _ low cares of|life a- way, cast|
w: If|an- gels, on _ the|sa- cred morn||The|Son _ of Righ- teous-|ness was born, the|
 (E2 D2) E2 F4 D2 | E4 D2 D4 F2 | G4 G2 E4 E2 | F6- F4 |: z2 | z12 | z6 z4 D2 | D4 C2 B,4 C2 | %15
w: praise _ his glo- rious|name di- vine With|hal- le- lu- jahs|high; _|||With|end- less thanks to|
w: all _ low cares of|life a- way, And|thoughts of mean- er|things: _|||This|day to cure thy|
w: Son _ of Righ- teous-|ness was born, Pour’d|forth their se- raphs’|songs, _|||How|should all peo- ple|
 D4 G2 F4 D2 | D4 D2 E4 F2 | (G2 F2) E2 F4 z2 | z12 | z6 z4 D2 | (E2 F2) G2 D4 D2 | (D6 E4) F2 | %22
w: God a- bove In|shew- ing forth his|bound- * less love||To|all _ e- ter- ni-|ty, _ to|
w: dead- ly woes The|Son of Righ- teous-|ness _ a- rose,||With|heal- * ing in his|wings, _ with|
w: then on earth Tri-|umph in ho- nour|of _ his birth:||The|praise _ to him be-|longs, _ the|
 G4 G2 F4 F2 | G6- G4 :| %24
w: all e- ter- ni-|ty. _|
w: heal- ing in his|wings. _|
w: praise to him be-|longs! _|
V:3
 G,,2 | G,4 F,2 (G,2 A,2) B,2 | A,4 A,,2 D,4 D,2 | (E,2 F,2) G,2 D,4 D,2 | G,4 F,2 E,4 D,2 | %5
w: Then|let us with _ the|an- gels join And|praise _ his glo- rious|name di- vine, and|
w: A-|rise and hail _ the|sa- cred day, Cast|all _ low cares of|life a- way, cast|
w: If|an- gels, on _ the|sa- cred morn The|Son _ of Righ- teous-|ness was born, the|
 (C,2 B,,2) G,,2 D,4 C,2 | B,,4 B,,2 E,4 D,2 | (G,2 F,2) E,2 D,4 G,2 | C,4 D,2 G,,4 D,2 | %9
w: praise _ his glo- rious|name di- vine, and|praise _ his glo- rious|name di- vine With|
w: all _ low cares of|life a- way, cast|all _ low cares of|life a- way, And|
w: Son _ of Righ- teous-|ness was born, the|Son _ of Righ- teous-|ness was born, Pour’d|
 G,4 E,2 A,4 A,,2 | D,6- D,4 |: z2 | z6 z4 G,2 | G,4 =F,2 (E,3 F,) G,2 | D,4 D,2 E,4 F,2 | %15
w: hal- le- lu- jahs|high; _||With|end- less thanks _ to|God a- bove, to|
w: thoughts of mean- er|things: _||This|day to cure _ thy|dead- ly woes, thy|
w: forth their se- raphs’|songs, _||How|should all peo- * ple|then on earth, all|
 G,4 G,2 D,4 D,2 | G,4 F,2 E,4 D,2 | G,4 A,2 D,4 z2 | z6 z4 D,2 | %19
w: God a- bove, In|shew- ing forth his|bound- less love|To|
w: dead- ly woes, The|Son of Righ- teous-|ness a- rose,|With|
w: then on earth, Tri-|umph in ho- nour|of his birth:|The|
"^Emendations: The order of staves in the source is as given here: no indication is given as to whether the first stave is tobe sung by trebles, tenors or both. The second stave is printed in the alto clef in the source.The last two notes of the bass part in bar 20, given here as quavers, are printed in the source as crotchets: thepreceding note is printed in the source, as here, as a dotted minim tied to a minim.The second and third verses of the text are printed after the music in the source, and have been underlaid editorially." (E,2 F,2) G,2 D,4 D,2 | %20
w: all _ e- ter- ni-|
w: heal- * ing in his|
w: praise _ to him be-|
 G,6- G,4 (G,A,) | (B,2 C2 B,2 A,2 B,2 A,2 | G,4) C,2 D,4 D,2 | [G,,G,]6- [G,,G,]4 :| %24
w: ty, _ to _|all _ _ _ _ _|_ e- ter- ni-|ty. _|
w: wings, _ with _|heal- * * * * *|* ing in his|wings. _|
w: longs, _ the _|praise _ _ _ _ _|_ to him be-|longs! _|

